src/icons/4x2.svg

<svg xmlns="http://www.w3.org/2000/svg" width="512" height="512" viewBox="0 0 512 512">
    <path d="M269.6 349.8H416v59.7H269.6v-59.7zm-173.6 0h146.4v59.7H96v-59.7zm173.6-86.7H416v59.7H269.6v-59.7zm-173.6 0h146.4v59.7H96v-59.7zm173.6-86.8H416V236H269.6v-59.7zm-173.6 0h146.4V236H96v-59.7zm173.6-86.8H416v59.7H269.6V89.5zM96 89.5h146.4v59.7H96V89.5z"/>
</svg>

<?xml version="1.0" encoding="UTF-8"?>
<svg width="512px" height="512px" viewBox="0 0 512 512" version="1.1" xmlns="http://www.w3.org/2000/svg" xmlns:xlink="http://www.w3.org/1999/xlink">
    <!-- Generator: Sketch 62 (91390) - https://sketch.com -->
    <title>4x2</title>
    <desc>Created with Sketch.</desc>
    <g id="4x2" stroke="none" stroke-width="1" fill="none" fill-rule="evenodd">
        <path d="M269.6,349.8 L416,349.8 L416,409.5 L269.6,409.5 L269.6,349.8 Z M96,349.8 L242.4,349.8 L242.4,409.5 L96,409.5 L96,349.8 Z M269.6,263.1 L416,263.1 L416,322.8 L269.6,322.8 L269.6,263.1 Z M96,263.1 L242.4,263.1 L242.4,322.8 L96,322.8 L96,263.1 Z M269.6,176.3 L416,176.3 L416,236 L269.6,236 L269.6,176.3 Z M96,176.3 L242.4,176.3 L242.4,236 L96,236 L96,176.3 Z M269.6,89.5 L416,89.5 L416,149.2 L269.6,149.2 L269.6,89.5 Z M96,89.5 L242.4,89.5 L242.4,149.2 L96,149.2 L96,89.5 Z" id="Shape" fill="#000000" fill-rule="nonzero"></path>
    </g>
</svg>
